dist/img/icon-card-working-us-2.svg

<svg width="96" height="97" viewBox="0 0 96 97" fill="none" xmlns="http://www.w3.org/2000/svg">
<rect width="96" height="97" rx="16" fill="#F4F5F6"/>
<path fill-rule="evenodd" clip-rule="evenodd" d="M64.4374 34.4897C57.5295 34.1509 51.7593 31.5536 46.9697 27C42.447 31.3135 36.7786 33.9267 30 34.5122V49.2547C30 59.9694 37.6021 69.1379 48.0303 71L48.4026 70.9258C58.0492 68.9129 65 60.3119 65 50.3105V34.5122L64.4374 34.4897ZM46.7305 30.0624L46.9686 29.8621L47.2077 30.0635C51.6636 33.7419 56.8064 35.9083 62.6261 36.5045L62.8788 36.5276V50.3105L62.875 50.6942C62.7028 59.3738 56.7005 66.8212 48.3444 68.7426L48.0176 68.8139L47.6611 68.74C38.6279 66.7686 32.1212 58.6734 32.1212 49.2547V36.4257L32.5248 36.3663C37.9078 35.5191 42.675 33.3923 46.7305 30.0624Z" fill="#393939"/>
<circle cx="48" cy="49" r="8" stroke="#83C150" stroke-width="2"/>
<path d="M46.5327 50.875L44.7039 49.3187C44.4713 49.1197 44.4315 48.7563 44.6167 48.5052C44.8019 48.2565 45.1401 48.2125 45.3728 48.4115L46.8482 49.667L50.6043 46.145C50.8261 45.9344 51.1665 45.9552 51.3646 46.1947C51.5617 46.4342 51.5413 46.7999 51.3183 47.0116L47.2252 50.8554C47.1229 50.9514 46.9958 51 46.8676 51C46.7502 51 46.6318 50.9583 46.5327 50.875Z" fill="#393939"/>
</svg>

<svg width="96" height="97" fill="none" xmlns="http://www.w3.org/2000/svg"><rect width="96" height="97" rx="16" fill="#F4F5F6"/><path fill-rule="evenodd" clip-rule="evenodd" d="M64.437 34.49C57.53 34.15 51.76 31.554 46.97 27c-4.523 4.314-10.191 6.927-16.97 7.512v14.743C30 59.969 37.602 69.138 48.03 71l.373-.074C58.049 68.913 65 60.312 65 50.31V34.512l-.563-.022zm-17.706-4.428l.238-.2.239.202c4.456 3.678 9.598 5.844 15.418 6.44l.253.024V50.31l-.004.384c-.172 8.68-6.175 16.127-14.53 18.049l-.327.07-.357-.073c-9.033-1.971-15.54-10.067-15.54-19.485v-12.83l.404-.059c5.383-.847 10.15-2.974 14.206-6.304z" fill="#393939"/><circle cx="48" cy="49" r="8" stroke="#83C150" stroke-width="2"/><path d="M46.533 50.875l-1.83-1.556a.609.609 0 01-.086-.814.514.514 0 01.756-.094l1.475 1.256 3.756-3.522a.514.514 0 01.76.05.609.609 0 01-.046.817l-4.093 3.843a.52.52 0 01-.357.145.52.52 0 01-.335-.125z" fill="#393939"/></svg>
